packages/forma-36-website/static/icons/components.svg

<svg height="46" viewBox="0 0 48 46" width="48" xmlns="http://www.w3.org/2000/svg"><g fill="none" fill-rule="evenodd" opacity=".12"><g stroke="#000" stroke-linejoin="round" stroke-width="2"><g stroke-linecap="round"><path d="m21 41c0 2.208-1.792 4-4 4h-12c-2.208 0-4-1.792-4-4v-12c0-2.208 1.792-4 4-4h12c2.208 0 4 1.792 4 4z"/><path d="m47 41c0 2.208-1.792 4-4 4h-12c-2.208 0-4-1.792-4-4v-12c0-2.208 1.792-4 4-4h12c2.208 0 4 1.792 4 4z"/><path d="m33 17c0 2.208-1.792 4-4 4h-12c-2.208 0-4-1.792-4-4v-12c0-2.208 1.792-4 4-4h12c2.208 0 4 1.792 4 4z"/></g><g transform="translate(6 28)"><path d="m1 1h5c1.656 0 3 1.344 3 3s-1.344 3-3 3h-5z"/><path d="m1 7h5c1.656 0 3 1.344 3 3s-1.344 3-3 3h-5z"/></g><g stroke-linecap="round" transform="translate(18 4)"><path d="m0 12.968 5.156-11.936 4.844 11.936"/><path d="m1.728 9h6.648"/></g><path d="m42.122 39.242c-1.086 1.086-2.586 1.758-4.242 1.758-3.314 0-6-2.686-6-6s2.686-6 6-6c1.578 0 3.016.612 4.086 1.608" stroke-linecap="round"/></g><path d="m0-2h48v48h-48z"/></g></svg>

<?xml version="1.0" encoding="UTF-8"?>
<svg width="48px" height="46px" viewBox="0 0 48 46" version="1.1" xmlns="http://www.w3.org/2000/svg" xmlns:xlink="http://www.w3.org/1999/xlink">
    <!-- Generator: Sketch 54.1 (76490) - https://sketchapp.com -->
    <title>icon-components</title>
    <desc>Created with Sketch.</desc>
    <g id="Mockups" stroke="none" stroke-width="1" fill="none" fill-rule="evenodd" opacity="0.12">
        <g id="Home-Copy" transform="translate(-1071.000000, -467.000000)">
            <g id="icon-components" transform="translate(1071.000000, 465.000000)">
                <g id="Outline_Icons" transform="translate(0.000000, 2.000000)" stroke="#000000" stroke-linejoin="round" stroke-width="2">
                    <g id="Group">
                        <path d="M21,41 C21,43.208 19.208,45 17,45 L5,45 C2.792,45 1,43.208 1,41 L1,29 C1,26.792 2.792,25 5,25 L17,25 C19.208,25 21,26.792 21,29 L21,41 Z" id="Path" stroke-linecap="round"></path>
                        <path d="M47,41 C47,43.208 45.208,45 43,45 L31,45 C28.792,45 27,43.208 27,41 L27,29 C27,26.792 28.792,25 31,25 L43,25 C45.208,25 47,26.792 47,29 L47,41 Z" id="Path" stroke-linecap="round"></path>
                        <path d="M33,17 C33,19.208 31.208,21 29,21 L17,21 C14.792,21 13,19.208 13,17 L13,5 C13,2.792 14.792,1 17,1 L29,1 C31.208,1 33,2.792 33,5 L33,17 Z" id="Path" stroke-linecap="round"></path>
                        <g transform="translate(6.000000, 28.000000)" id="Path">
                            <path d="M1,1 L6,1 C7.656,1 9,2.344 9,4 C9,5.656 7.656,7 6,7 L1,7 L1,1 Z"></path>
                            <path d="M1,7 L6,7 C7.656,7 9,8.344 9,10 C9,11.656 7.656,13 6,13 L1,13 L1,7 Z"></path>
                        </g>
                        <g transform="translate(18.000000, 4.000000)" id="Path" stroke-linecap="round">
                            <polyline points="0 12.968 5.156 1.032 10 12.968"></polyline>
                            <path d="M1.728,9 L8.376,9"></path>
                        </g>
                        <path d="M42.122,39.242 C41.036,40.328 39.536,41 37.88,41 C34.566,41 31.88,38.314 31.88,35 C31.88,31.686 34.566,29 37.88,29 C39.458,29 40.896,29.612 41.966,30.608" id="Path" stroke-linecap="round"></path>
                    </g>
                </g>
                <g id="invisible_shape">
                    <rect id="Rectangle" x="0" y="0" width="48" height="48"></rect>
                </g>
            </g>
        </g>
    </g>
</svg>
